svgs/duotone/receipt.svg

<svg xmlns="http://www.w3.org/2000/svg" viewBox="0 0 384 512"><!--! Font Awesome Pro 6.3.0 by @fontawesome - https://fontawesome.com License - https://fontawesome.com/license (Commercial License) Copyright 2023 Fonticons, Inc. --><defs><style>.fa-secondary{opacity:.4}</style></defs><path class="fa-primary" d="M80 160C80 151.2 87.16 144 96 144H288C296.8 144 304 151.2 304 160C304 168.8 296.8 176 288 176H96C87.16 176 80 168.8 80 160zM80 352C80 343.2 87.16 336 96 336H288C296.8 336 304 343.2 304 352C304 360.8 296.8 368 288 368H96C87.16 368 80 360.8 80 352zM288 240C296.8 240 304 247.2 304 256C304 264.8 296.8 272 288 272H96C87.16 272 80 264.8 80 256C80 247.2 87.16 240 96 240H288z"/><path class="fa-secondary" d="M13.97 2.196C22.49-1.72 32.5-.3214 39.62 5.778L80 40.39L120.4 5.778C129.4-1.926 142.6-1.926 151.6 5.778L192 40.39L232.4 5.778C241.4-1.926 254.6-1.926 263.6 5.778L304 40.39L344.4 5.778C351.5-.3214 361.5-1.72 370 2.196C378.5 6.113 384 14.63 384 24V488C384 497.4 378.5 505.9 370 509.8C361.5 513.7 351.5 512.3 344.4 506.2L304 471.6L263.6 506.2C254.6 513.9 241.4 513.9 232.4 506.2L192 471.6L151.6 506.2C142.6 513.9 129.4 513.9 120.4 506.2L80 471.6L39.62 506.2C32.5 512.3 22.49 513.7 13.97 509.8C5.456 505.9 0 497.4 0 488V24C0 14.63 5.456 6.112 13.97 2.196V2.196zM96 144C87.16 144 80 151.2 80 160C80 168.8 87.16 176 96 176H288C296.8 176 304 168.8 304 160C304 151.2 296.8 144 288 144H96zM96 368H288C296.8 368 304 360.8 304 352C304 343.2 296.8 336 288 336H96C87.16 336 80 343.2 80 352C80 360.8 87.16 368 96 368zM96 240C87.16 240 80 247.2 80 256C80 264.8 87.16 272 96 272H288C296.8 272 304 264.8 304 256C304 247.2 296.8 240 288 240H96z"/></svg>

<svg xmlns="http://www.w3.org/2000/svg" viewBox="0 0 384 512"><!--! Font Awesome Pro 6.4.0 by @fontawesome - https://fontawesome.com License - https://fontawesome.com/license (Commercial License) Copyright 2023 Fonticons, Inc. --><defs><style>.fa-secondary{opacity:.4}</style></defs><path class="fa-primary" d="M80 160c0-8.8 7.2-16 16-16H288c8.8 0 16 7.2 16 16s-7.2 16-16 16H96c-8.8 0-16-7.2-16-16zm0 192c0-8.8 7.2-16 16-16H288c8.8 0 16 7.2 16 16s-7.2 16-16 16H96c-8.8 0-16-7.2-16-16zM96 240H288c8.8 0 16 7.2 16 16s-7.2 16-16 16H96c-8.8 0-16-7.2-16-16s7.2-16 16-16z"/><path class="fa-secondary" d="M14 2.2C22.5-1.7 32.5-.3 39.6 5.8L80 40.4 120.4 5.8c9-7.7 22.3-7.7 31.2 0L192 40.4 232.4 5.8c9-7.7 22.3-7.7 31.2 0L304 40.4 344.4 5.8c7.1-6.1 17.1-7.5 25.6-3.6s14 12.4 14 21.8V488c0 9.4-5.5 17.9-14 21.8s-18.5 2.5-25.6-3.6L304 471.6l-40.4 34.6c-9 7.7-22.3 7.7-31.2 0L192 471.6l-40.4 34.6c-9 7.7-22.3 7.7-31.2 0L80 471.6 39.6 506.2c-7.1 6.1-17.1 7.5-25.6 3.6S0 497.4 0 488V24C0 14.6 5.5 6.1 14 2.2zM96 144c-8.8 0-16 7.2-16 16s7.2 16 16 16H288c8.8 0 16-7.2 16-16s-7.2-16-16-16H96zM80 352c0 8.8 7.2 16 16 16H288c8.8 0 16-7.2 16-16s-7.2-16-16-16H96c-8.8 0-16 7.2-16 16zM96 240c-8.8 0-16 7.2-16 16s7.2 16 16 16H288c8.8 0 16-7.2 16-16s-7.2-16-16-16H96z"/></svg>
